icons/NextJS-Light.svg

<svg xmlns="http://www.w3.org/2000/svg" width="256" height="256" fill="none" viewBox="0 0 256 256"><rect width="256" height="256" fill="#F4F2ED" rx="60"/><path fill="#000" d="M121.451 28.0537C121.021 28.0928 119.652 28.2297 118.42 28.3274C90.0137 30.8885 63.4057 46.216 46.5533 69.7742C37.1691 82.8729 31.1672 97.7312 28.8993 113.469C28.0978 118.963 28 120.586 28 128.034C28 135.483 28.0978 137.106 28.8993 142.599C34.3343 180.155 61.0596 211.71 97.306 223.401C103.797 225.493 110.639 226.92 118.42 227.78C121.451 228.112 134.549 228.112 137.58 227.78C151.011 226.294 162.389 222.971 173.611 217.242C175.331 216.363 175.664 216.128 175.429 215.933C175.273 215.815 167.941 205.981 159.144 194.095L143.152 172.492L123.112 142.834C112.086 126.529 103.015 113.195 102.936 113.195C102.858 113.176 102.78 126.353 102.741 142.443C102.682 170.615 102.663 171.749 102.311 172.413C101.803 173.371 101.412 173.762 100.59 174.193C99.9648 174.505 99.4174 174.564 96.4653 174.564H93.0831L92.1838 173.997C91.5973 173.626 91.1672 173.137 90.8739 172.57L90.4633 171.69L90.5024 132.492L90.5611 93.2737L91.1672 92.5112C91.48 92.1007 92.1447 91.5728 92.6139 91.3186C93.4154 90.9276 93.7283 90.8885 97.1105 90.8885C101.099 90.8885 101.763 91.0449 102.8 92.1789C103.093 92.4917 113.943 108.836 126.925 128.523C139.906 148.21 157.658 175.092 166.377 188.288L182.213 212.277L183.015 211.749C190.111 207.135 197.619 200.566 203.562 193.723C216.211 179.197 224.364 161.485 227.101 142.599C227.902 137.106 228 135.483 228 128.034C228 120.586 227.902 118.963 227.101 113.469C221.666 75.913 194.94 44.3587 158.694 32.6676C152.301 30.5953 145.498 29.1681 137.873 28.3079C135.996 28.1124 123.073 27.8973 121.451 28.0537ZM162.389 88.5425C163.327 89.0117 164.09 89.911 164.364 90.8494C164.52 91.3577 164.559 102.228 164.52 126.724L164.461 161.876L158.264 152.374L152.047 142.873V117.321C152.047 100.801 152.125 91.5141 152.242 91.0645C152.555 89.9697 153.239 89.1095 154.178 88.6011C154.979 88.1906 155.273 88.1515 158.342 88.1515C161.236 88.1515 161.744 88.1906 162.389 88.5425Z"/></svg>

<svg xmlns="http://www.w3.org/2000/svg" width="256" height="256" fill="none" viewBox="0 0 256 256"><rect width="256" height="256" fill="#F4F2ED" rx="60"/><path fill="#000" d="M121.45 28.05c-.43.04-1.8.18-3.03.28-28.4 2.56-55.01 17.89-71.87 41.44a99 99 0 0 0-17.65 43.7c-.8 5.5-.9 7.12-.9 14.56s.1 9.08.9 14.57c5.43 37.56 32.16 69.11 68.4 80.8a106 106 0 0 0 21.12 4.38c3.03.33 16.13.33 19.16 0 13.43-1.49 24.8-4.8 36.03-10.54 1.72-.88 2.05-1.11 1.82-1.3-.16-.12-7.49-9.96-16.29-21.84l-15.99-21.6-20.04-29.67a2831 2831 0 0 0-20.17-29.64c-.08-.01-.16 13.16-.2 29.25-.06 28.18-.08 29.3-.43 29.97-.5.96-.9 1.35-1.72 1.78-.63.31-1.17.37-4.12.37h-3.39l-.9-.56a4 4 0 0 1-1.3-1.43l-.42-.88.04-39.2.06-39.22.6-.76c.32-.4.98-.94 1.45-1.2.8-.38 1.12-.42 4.5-.42 3.99 0 4.65.15 5.69 1.29.3.31 11.14 16.66 24.13 36.34l39.45 59.77 15.83 23.99.8-.53c7.1-4.62 14.6-11.18 20.55-18.03a99.6 99.6 0 0 0 23.54-51.12c.8-5.5.9-7.12.9-14.57s-.1-9.07-.9-14.56c-5.43-37.56-32.16-69.11-68.4-80.8-6.4-2.07-13.2-3.5-20.83-4.36-1.87-.2-14.8-.41-16.42-.26m40.94 60.5c.94.46 1.7 1.36 1.97 2.3.16.5.2 11.38.16 35.87l-.06 35.16-6.2-9.5-6.21-9.5v-25.56c0-16.52.07-25.8.2-26.26.3-1.09.99-1.95 1.93-2.46.8-.4 1.1-.45 4.16-.45 2.9 0 3.4.04 4.05.4"/></svg>
